X:10
T:No.92 Miss Crawford
C:highland(schottische)
L:1/8
M:4/4
K:A
A2 c>A e<c e>a|A2 c>A B<E G>B|
A2 c>A e<c e>a|(3gfe (3dcB (3AcB (3AFE|
A2 c>A e<c e>a|A2 c>A B<E G>B|
A2 c>A e<c e>g|f>a g>b a2 A2||
a>A c'>A e'>A c'>A|a>A c'>A b>a b>c'|
a>A c'>A e'>A c'>A|(3dfd (3cec B>c A>b|
a>A c'>A e'>A c'>A|a>A c'>A b>a b>c'|
(3Ace (3ecA (3Adf (3fdB|(3gab (3efg a>f (3ecB||
